X: 24179
T: Lord Frog
R: jig
M: 6/8
K: Eminor
B,2|:E2 F G2 A|BAG d3|AFD EB,D|EFD B,3|
E2 F G2 A|BAG d3|ede c2 A|1 B3 AGF:|2 B3 FGA||
|:d2 g f2 e|dzB d3|A2 B/A/ A2 G|F2 G ABc|
d2 g f2 e|dBA G3|BAG (F/G/)FE|1 E3 FGA:|2 E3 z||

